img/icons/svg/icon__send.svg

<svg width="43" height="36" fill="none" xmlns="http://www.w3.org/2000/svg">
  <path d="M20.8934 27.0429L19.2227 33.4813L24.1843 28.4089L23.5099 28.1414L20.8934 27.0429Z" fill="#304BAB"/>
  <path d="M23.5899 23.4964C23.3073 23.8299 22.8079 23.8712 22.4744 23.5886C22.1408 23.306 22.0996 22.8066 22.3821 22.4731L41.3769 0.0703125L3.08505 15.521L0.128174 16.7453L12.2706 21.661L31.6017 7.26852C31.8264 7.07884 32.1379 7.02936 32.4103 7.14014C32.6827 7.25092 32.8712 7.50359 32.8999 7.79623C32.9285 8.08895 32.7925 8.37334 32.5467 8.53479L13.3145 22.86L17.0043 35.7488L19.5756 25.8193H19.5946C19.5994 25.7626 19.6106 25.7066 19.6278 25.6523C19.797 25.2493 20.2608 25.0597 20.6639 25.2289L25.8432 27.3975L36.6361 31.6412C36.8511 31.7363 37.0981 31.7249 37.3034 31.6103C37.5174 31.4903 37.6635 31.2778 37.6991 31.0349L40.2951 13.6888L42.872 0.753354L23.5899 23.4964Z" fill="#304BAB"/>
</svg>

<svg width="43" height="36" fill="none" xmlns="http://www.w3.org/2000/svg"><path d="M20.893 27.043l-1.67 6.438 4.961-5.072-.674-.268-2.617-1.098z" fill="#304BAB"/><path d="M23.59 23.496a.791.791 0 01-1.208-1.023L41.377.07 3.085 15.521.128 16.745l12.143 4.916L31.6 7.269a.791.791 0 11.946 1.266L13.315 22.86l3.69 12.889 2.57-9.93h.02a.768.768 0 01.033-.167.791.791 0 011.036-.423l5.18 2.169 10.792 4.243a.748.748 0 00.667-.03.791.791 0 00.396-.576l2.596-17.346L42.872.753 23.59 23.496z" fill="#304BAB"/></svg>
